X: 27
T: Come Up The Back Stairs
B: NEFR #27
Z: 2012 John Chambers <jc:trillian.mit.edu>
M: 6/8
K: G
D |\
"G"D2B B2A | "D7"AGF "G"G2B | "D"d2F FEF | "G"A2G "(D7)"GFE |\
"G"D2B B2A | "D7"AGF "G"GAB | "D"d2F FEF | "G"G3 G2 :|
|: d |\
"G"gfg bge | edB "D7"def | "G"gfg "Em"bge | ed^c "D7"def |\
"G"g2g gab | "C"e2e efg | "D"ded def | "D7"agf "G"g2 :|
